X:031
T:Corney is Coming (reel) 
B:CRE3.173 (TÃÂÃÂÃÂÃÂ¡ CornaÃÂÃÂÃÂÃÂ­ ag Teacht)
F:file ID: cre.3/031corney
N:CRE version has only one C natural in the whole tune (in measure 18). 
I have added a few more to correspond to my hearing of this tune 
over the years.
R:reel
L:1/8
Q:180
M:C
K:G
"D modal"
z|Addc defd|cABG EFGE|D2dc defg|af (3gfe fdec|
"5"Addc defd|cABG EFGE|Dddc defd|gecd edd:|
A|"9"defg afdB|cdef gece|dcdf afdf|gecd edde|
"13"(3fgf df afdf|gece gfge|defg a3f|gece eddc|
"17"d3f afdB|c3d ge^ce|d3g (3fga df|gece eddg|
"21"fadf afdf|gece gfge|defg a3f|g2ag edcA||HD8||

%%%

